images/ICONOS/VALORES/CONFIANZA ICON.svg

<svg width="43" height="50" viewBox="0 0 43 50" fill="none" xmlns="http://www.w3.org/2000/svg">
<path d="M21.0949 49.9988C13.5996 48.1473 5.08603 40.2747 1.99456 31.6824C0.996084 28.9083 0.22414 26.0731 0.136727 23.1291C0.00376054 18.6539 0.0308463 14.1737 6.70267e-05 9.69607C-0.00485766 9.0386 0.261075 8.73308 0.968998 8.53388C4.28208 7.60022 7.53853 6.50646 10.7162 5.18785C14.1228 3.77513 17.4211 2.14122 20.5988 0.275119C21.2255 -0.0927245 21.7487 -0.0902804 22.3778 0.273897C28.5091 3.82279 34.9862 6.56634 41.8229 8.47033C42.7993 8.74285 42.9852 8.9946 42.9827 9.98937C42.9765 13.801 43.0455 17.6151 42.9445 21.4243C42.7389 29.2724 39.9626 36.1173 34.5627 41.8854C31.8899 44.7402 28.8242 47.0902 25.2797 48.7767C24.1987 49.2912 23.0168 49.5979 21.8817 50C21.6207 49.9988 21.3572 49.9988 21.0949 49.9988ZM40.8589 10.4134C40.6607 10.3474 40.4613 10.2802 40.2606 10.2155C38.857 9.76695 37.4437 9.349 36.0537 8.86506C31.1548 7.16149 26.453 5.02409 21.9494 2.46263C21.601 2.26465 21.351 2.26832 21.0149 2.47118C20.3156 2.8928 19.5917 3.27897 18.8702 3.6627C13.6821 6.42214 8.26861 8.63287 2.60769 10.2387C2.19771 10.3548 2.0869 10.5344 2.08936 10.9426C2.10783 14.0051 2.09059 17.0676 2.10168 20.1289C2.11399 23.7707 2.64585 27.3257 3.92135 30.7573C5.43322 34.8255 7.76629 38.3695 10.8836 41.3966C13.4962 43.9324 16.4276 46.0148 19.8145 47.4361C20.8623 47.876 21.8854 48.0178 22.9466 47.5192C23.4059 47.3041 23.8835 47.1281 24.3391 46.9069C27.6325 45.3048 30.4974 43.1307 32.9917 40.4727C37.8844 35.2606 40.5056 29.0757 40.7924 21.9718C40.9439 18.2151 40.8577 14.4487 40.8774 10.6859C40.8774 10.6053 40.8663 10.5234 40.8589 10.4134Z" fill="url(#paint0_linear_1_2819)"/>
<path d="M18.081 26.6633C18.5797 26.1525 19.0081 25.7028 19.4476 25.2653C22.4751 22.2565 25.5025 19.249 28.5349 16.2464C29.8412 14.9522 31.4405 14.7066 32.924 15.5547C34.6785 16.558 35.1426 18.9887 33.877 20.5591C33.7231 20.7497 33.563 20.9355 33.3894 21.1078C29.1677 25.3032 24.9448 29.4973 20.7194 33.6878C19.4132 34.9832 17.8065 35.2423 16.3352 34.388C16.0274 34.2096 15.7455 33.9738 15.4919 33.7232C13.5011 31.7606 11.514 29.793 9.53672 27.8157C7.92388 26.2026 8.00883 23.9149 9.714 22.5486C10.9021 21.5966 12.7501 21.5428 13.9 22.5523C15.0782 23.5861 16.1616 24.7276 17.282 25.8262C17.5369 26.0767 17.7769 26.3431 18.081 26.6633ZM17.8274 32.77C18.5156 32.7944 18.8776 32.5403 19.2149 32.2042C23.4465 27.9978 27.6817 23.7963 31.9145 19.5936C32.0191 19.4898 32.1238 19.3859 32.2112 19.2686C32.7714 18.5194 32.4254 17.4953 31.5254 17.2253C30.8815 17.0322 30.4272 17.3389 30 17.7642C26.3717 21.3705 22.7386 24.9732 19.1066 28.5759C18.331 29.3445 17.8373 29.347 17.069 28.5856C15.6519 27.1827 14.2435 25.7712 12.819 24.3756C12.2182 23.7878 11.4253 23.7768 10.8861 24.312C10.3468 24.8473 10.353 25.6392 10.9439 26.2319C12.9778 28.2667 15.0179 30.2941 17.0739 32.3068C17.3165 32.5451 17.6674 32.6747 17.8274 32.77Z" fill="url(#paint1_linear_1_2819)"/>
<path d="M4.1762 14.7542C4.1762 14.1359 4.16635 13.5175 4.17866 12.9003C4.1922 12.227 4.42243 11.8982 5.03309 11.6832C6.88231 11.0306 8.73153 10.3804 10.5844 9.7364C11.184 9.52865 11.6445 9.65208 11.9449 10.0725C12.2231 10.4623 12.2268 10.9927 11.8907 11.33C11.7036 11.5182 11.445 11.6636 11.1926 11.7565C9.72016 12.2966 8.24152 12.8246 6.75796 13.3317C6.4354 13.4417 6.29135 13.5725 6.30366 13.9391C6.33444 14.8324 6.3209 15.7282 6.31105 16.6228C6.30366 17.2314 6.05004 17.6078 5.57604 17.7679C4.97769 17.9707 4.31655 17.6346 4.2513 16.9931C4.1762 16.2537 4.1762 15.5009 4.1762 14.7542C4.1959 14.7542 4.15773 14.7554 4.1762 14.7542Z" fill="url(#paint2_linear_1_2819)"/>
<path d="M33.5667 33.7513C34.4261 33.7635 34.8804 34.6483 34.3793 35.4121C33.9151 36.1197 33.4091 36.8041 32.8809 37.4664C31.4503 39.2617 29.7833 40.8222 27.9772 42.2398C27.4269 42.6712 26.8334 42.6553 26.4345 42.2093C26.0282 41.7547 26.0824 41.1106 26.5995 40.6511C27.2102 40.1098 27.8578 39.6087 28.466 39.0637C30.0062 37.684 31.3494 36.1332 32.5042 34.421C32.7603 34.0434 33.0533 33.7269 33.5667 33.7513Z" fill="url(#paint3_linear_1_2819)"/>
<path d="M23.5401 43.2872C23.5314 42.6969 24.0177 42.2007 24.6186 42.1861C25.1714 42.1726 25.67 42.637 25.6897 43.1833C25.7106 43.7662 25.164 44.3198 24.5705 44.3174C24.0079 44.3149 23.5487 43.8554 23.5401 43.2872Z" fill="url(#paint4_linear_1_2819)"/>
<path d="M14.0723 10.4794C13.5319 10.477 13.0505 9.98448 13.0468 9.43333C13.0431 8.88095 13.5553 8.37745 14.1204 8.37868C14.6842 8.3799 15.1878 8.89195 15.173 9.44921C15.157 10.0016 14.6436 10.4831 14.0723 10.4794Z" fill="url(#paint5_linear_1_2819)"/>
<defs>
<linearGradient id="paint0_linear_1_2819" x1="0" y1="50.0011" x2="43" y2="50.0011" gradientUnits="userSpaceOnUse">
<stop stop-color="#1723FF"/>
<stop offset="1" stop-color="#30E35E"/>
</linearGradient>
<linearGradient id="paint1_linear_1_2819" x1="0" y1="50.0011" x2="43" y2="50.0011" gradientUnits="userSpaceOnUse">
<stop stop-color="#1723FF"/>
<stop offset="1" stop-color="#30E35E"/>
</linearGradient>
<linearGradient id="paint2_linear_1_2819" x1="0" y1="50.0011" x2="43" y2="50.0011" gradientUnits="userSpaceOnUse">
<stop stop-color="#1723FF"/>
<stop offset="1" stop-color="#30E35E"/>
</linearGradient>
<linearGradient id="paint3_linear_1_2819" x1="0" y1="50.0011" x2="43" y2="50.0011" gradientUnits="userSpaceOnUse">
<stop stop-color="#1723FF"/>
<stop offset="1" stop-color="#30E35E"/>
</linearGradient>
<linearGradient id="paint4_linear_1_2819" x1="0" y1="50.0011" x2="43" y2="50.0011" gradientUnits="userSpaceOnUse">
<stop stop-color="#1723FF"/>
<stop offset="1" stop-color="#30E35E"/>
</linearGradient>
<linearGradient id="paint5_linear_1_2819" x1="0" y1="50.0011" x2="43" y2="50.0011" gradientUnits="userSpaceOnUse">
<stop stop-color="#1723FF"/>
<stop offset="1" stop-color="#30E35E"/>
</linearGradient>
</defs>
</svg>

<svg xmlns="http://www.w3.org/2000/svg" width="43" height="50" fill="none"><path fill="url(#a)" d="M21.095 49.999c-7.495-1.852-16.009-9.724-19.1-18.317C.996 28.908.225 26.073.137 23.13.004 18.654.03 14.174 0 9.696c-.005-.657.261-.963.969-1.162 3.313-.934 6.57-2.028 9.747-3.346A80.036 80.036 0 0 0 20.6.275c.627-.368 1.15-.365 1.779-.001A83.27 83.27 0 0 0 41.823 8.47c.976.273 1.162.525 1.16 1.52-.006 3.811.063 7.625-.038 11.434-.206 7.848-2.982 14.693-8.382 20.461-2.673 2.855-5.739 5.205-9.283 6.892-1.081.514-2.263.82-3.398 1.223l-.787-.001Zm19.764-39.586c-.198-.066-.398-.133-.598-.197-1.404-.449-2.817-.867-4.207-1.35a84.845 84.845 0 0 1-14.105-6.403c-.348-.198-.598-.195-.934.008-.7.422-1.423.808-2.145 1.192-5.188 2.76-10.601 4.97-16.262 6.576-.41.116-.521.295-.519.704.019 3.062.002 6.125.013 9.186.012 3.642.544 7.197 1.82 10.628 1.511 4.068 3.844 7.613 6.962 10.64 2.612 2.535 5.544 4.618 8.93 6.04 1.048.439 2.071.58 3.133.082.459-.215.937-.39 1.392-.612 3.294-1.602 6.158-3.776 8.653-6.434 4.892-5.212 7.514-11.397 7.8-18.501.152-3.757.066-7.523.085-11.286 0-.08-.01-.163-.018-.273Z"/><path fill="url(#b)" d="M18.081 26.663c.499-.51.927-.96 1.367-1.398 3.027-3.009 6.055-6.016 9.087-9.019 1.306-1.294 2.905-1.54 4.389-.691 1.755 1.003 2.219 3.434.953 5.004-.154.19-.314.377-.488.549-4.221 4.195-8.444 8.39-12.67 12.58-1.306 1.295-2.913 1.554-4.384.7a4.276 4.276 0 0 1-.843-.665c-1.99-1.962-3.978-3.93-5.955-5.907-1.613-1.613-1.528-3.901.177-5.267 1.188-.952 3.036-1.006 4.186.003 1.178 1.034 2.262 2.176 3.382 3.274.255.25.495.517.799.837Zm-.254 6.107c.689.024 1.05-.23 1.388-.566 4.232-4.206 8.467-8.408 12.7-12.61.104-.104.209-.208.296-.325.56-.75.214-1.774-.686-2.044-.643-.193-1.098.114-1.525.54-3.628 3.605-7.261 7.208-10.893 10.81-.776.77-1.27.772-2.038.01-1.417-1.402-2.825-2.814-4.25-4.21-.6-.587-1.394-.598-1.933-.063-.54.535-.533 1.327.058 1.92a794.377 794.377 0 0 0 6.13 6.075c.242.238.593.368.753.463Z"/><path fill="url(#c)" d="M4.176 14.754c0-.618-.01-1.236.003-1.854.013-.673.243-1.002.854-1.217 1.85-.652 3.699-1.303 5.551-1.947.6-.207 1.06-.084 1.36.336.28.39.283.92-.053 1.258a1.955 1.955 0 0 1-.698.427c-1.473.54-2.951 1.068-4.435 1.575-.323.11-.467.24-.454.607.03.893.017 1.79.007 2.684-.007.608-.261.985-.735 1.145-.598.203-1.26-.133-1.325-.775-.075-.74-.075-1.492-.075-2.239.02 0-.018.001 0 0Z"/><path fill="url(#d)" d="M33.567 33.751c.86.013 1.313.897.812 1.661-.464.708-.97 1.392-1.498 2.054-1.43 1.796-3.098 3.356-4.904 4.774-.55.431-1.144.415-1.543-.03-.406-.455-.352-1.1.165-1.559.611-.541 1.259-1.042 1.867-1.587a24.89 24.89 0 0 0 4.038-4.643c.256-.378.55-.694 1.063-.67Z"/><path fill="url(#e)" d="M23.54 43.287a1.102 1.102 0 0 1 1.079-1.1c.552-.014 1.051.45 1.07.996.022.583-.525 1.137-1.119 1.134a1.042 1.042 0 0 1-1.03-1.03Z"/><path fill="url(#f)" d="M14.072 10.48c-.54-.003-1.021-.496-1.025-1.047-.004-.552.508-1.056 1.073-1.054.564 0 1.068.513 1.053 1.07-.016.553-.53 1.034-1.1 1.03Z"/><defs><linearGradient id="a" x1="0" x2="43" y1="50.001" y2="50.001" gradientUnits="userSpaceOnUse"><stop stop-color="#1723FF"/><stop offset="1" stop-color="#30E35E"/></linearGradient><linearGradient id="b" x1="0" x2="43" y1="50.001" y2="50.001" gradientUnits="userSpaceOnUse"><stop stop-color="#1723FF"/><stop offset="1" stop-color="#30E35E"/></linearGradient><linearGradient id="c" x1="0" x2="43" y1="50.001" y2="50.001" gradientUnits="userSpaceOnUse"><stop stop-color="#1723FF"/><stop offset="1" stop-color="#30E35E"/></linearGradient><linearGradient id="d" x1="0" x2="43" y1="50.001" y2="50.001" gradientUnits="userSpaceOnUse"><stop stop-color="#1723FF"/><stop offset="1" stop-color="#30E35E"/></linearGradient><linearGradient id="e" x1="0" x2="43" y1="50.001" y2="50.001" gradientUnits="userSpaceOnUse"><stop stop-color="#1723FF"/><stop offset="1" stop-color="#30E35E"/></linearGradient><linearGradient id="f" x1="0" x2="43" y1="50.001" y2="50.001" gradientUnits="userSpaceOnUse"><stop stop-color="#1723FF"/><stop offset="1" stop-color="#30E35E"/></linearGradient></defs></svg>
